X:1
T:Contra Indication Harmony
C:copyright 1998 Jim Thompson
R:Reel
E:14
M:C
K:D
f2a2a2f2|afed A4|f2a2a2f2|edcd e4|
d4 Bcde|d4 fedB|^g4 baga|cefe a4|
f2a2a2f2|afed A4|f2a2a2f2|gfef d4|
B4 Bcde|d4 fedB|Bcd2c2e2|f8||
|:g4g2g2|g4g2g2|f4f2f2|e4e2e2|
g4g2g2|g4g2g2|f4f2f2|gfef g4:|
\bigskip
\bigskip
